X:3787
T:Danza (CT 002)
R:Danza
C:Tradicional
S:Música Tradicional Asturiana, (C) Tello & Tito. Asturies, 2001.
S:http://pagina.de/MusTradAst <telloytito@asturies.org>
N:Danza, transcrita en Mieres.
N:Es, sin duda, la danza, uno de los regocijos predilectos de los asturianos, y bien cabe decir que cada pueblo posee sus danzas particulares.
O:Mieres
A:Asturies
Z:Cancioneru de Torner 002
M:6/8
L:1/8
Q:3/8=80
W:Si el cura va a los figos,
W:¿qué haremos los vecinos?
W:Si el cura va les nueces,
W:¿qué harán los feligreses?
K:C
"Solo" G|:G2c c2c|c3 A2 "Coro"B|B2c B2A|G3 G3-|G3 z2 "Solo"G|
G2c c2c|c3 A2 "Coro"B|B2c B2A|G3 G3-|[1 G3 z2G:|[2 G3 z3||


